X:83
T:Granes March,2parts. TLY.083
M:2/2
L:1/8
Q:1/2=60
S:Wm.Tildesley,Swinton,Lancs.1860s.
R:.March
O:England.
A:Lancashire.
N:triplets not marked in 6th. and 7th. bars, 9th, 10th, 13th., 14th. and
N:17th. bars in original
H:1860.
Z:vmp.Taz Tarry.
K:D
[V:1]|:f4 e4| d>dd>d d2 A2| a4 g4| f>ff>f f2 d2| f>ff>a e>ee>a|!
[V:2]|:d4 A4| F>FF>F F2 D2|f4 e4| d>dd>d d2 F2|\
d>dd>f A>AA>f|!
%
[V:1]d>dd>f e2 A2| (3ded (3efe (3fgf (3efe|\
(3aba (3gag (3fgf (3efe| d>dd>dd4:|!
[V:2]F>FF>d A2D2|(3FAF (3AdA (3ded (3AdA|\
(3fgf (3efe (3ded (3AdA| F>FF>F F4:|!
%
[V:1]|:(3fgf (3fgf (3efe (3efe| (3gag (3gag f4|\
f>ff>a e>ee>a| d>dd>f e2 A2|!
[V:2]|:(3ded (3ded (3AdA (3AdA| (3efe (3efe d4| d>dd>f A>AA>f|\
F>FF>d A2 D2|!
%
[V:1](3fgf (3fgf (3efe (3efe| (3gag (3gag f4| a8|\
a8| (3aba (3gag (3fgf (3efe| d>dd>d d4:|
[V:2](3ded (3ded (3AdA (3AdA| (3efe (3efe d4|!
(~f8|~f8)|(3fgf (3efe (3ded (3AdA| F>FF>F F4:|

